public/images/dubprime-grad-horizontal.svg

<svg height="170" viewBox="0 0 784 170" width="784" xmlns="http://www.w3.org/2000/svg" xmlns:xlink="http://www.w3.org/1999/xlink"><linearGradient id="a" x1="-23.258144%" x2="129.601645%" y1="55.82673%" y2="50%"><stop offset="0" stop-color="#9747ff"/><stop offset="1" stop-color="#47bfff"/></linearGradient><g fill="none" fill-rule="evenodd" transform="translate(-474 -200)"><g fill="#fff" fill-rule="nonzero" transform="translate(731.470167 233.332622)"><path d="m0 84.9507188v-74.2h31.1126563c5.4623125 0 10.4426562.9034843 14.9410312 2.7104531 4.498375 1.8069687 8.3886302 4.3611823 11.6707656 7.6626406s5.8068125 7.2135208 7.5740313 11.7361875c1.7672187 4.5226667 2.6508281 9.5195729 2.6508281 14.9907188 0 5.4313958-.8836094 10.4260937-2.6508281 14.9840937-1.7672188 4.558-4.2844427 8.48-7.5516719 11.766s-7.1574844 5.8324844-11.6707656 7.6394531c-4.5132813 1.8069688-9.5010781 2.7104532-14.9633906 2.7104532zm18.02-12.2926875-2.3866562-3.5990313h14.9493125c2.9337708 0 5.5730052-.5095729 7.9177031-1.5287187 2.3446979-1.0191459 4.3515208-2.4490417 6.0204687-4.2896875 1.6689479-1.8406459 2.9522657-4.0718907 3.8499532-6.6937344.8976875-2.6218438 1.3465312-5.5205573 1.3465312-8.6961406 0-3.1755834-.4488437-6.0668438-1.3465312-8.6737813s-2.1887344-4.8381823-3.8731407-6.6937344c-1.6844062-1.8555521-3.6912291-3.292901-6.0204687-4.3120468-2.3292396-1.0191459-4.9607448-1.5287188-7.8945156-1.5287188h-15.2673125l2.7046562-3.3870312z"/><path d="m98.8610034 86.072c-4.1605 0-7.7172969-.8985156-10.6703906-2.6955469-2.9530938-1.7970312-5.2144271-4.3865781-6.784-7.7686406s-2.3543594-7.4509167-2.3543594-12.2065625v-34.708375h17.0030625v32.4095c0 2.2767917.3704479 4.2237135 1.1113438 5.8407656.7408958 1.6170521 1.8091771 2.8586875 3.2048433 3.7249063 1.395667.8662187 3.086146 1.2993281 5.071438 1.2993281 1.480687 0 2.835776-.2343594 4.065266-.7030781 1.229489-.4687188 2.290317-1.1414323 3.182484-2.0181406.892167-.8767084 1.59-1.9093803 2.0935-3.0980157s.75525-2.4680885.75525-3.8383593v-33.6169063h17.004719v56.2578438h-15.969563l-.730406-11.5390938 3.125344-1.272c-.807146 2.6555208-2.197568 5.0330677-4.171266 7.1326406s-4.338547 3.7577552-7.094547 4.9745469-5.703573 1.8251875-8.8427186 1.8251875z"/><path d="m181.105394 86.072c-2.524125 0-4.959641-.3480885-7.306547-1.0442656s-4.451448-1.6474167-6.313625-2.8537188-3.416568-2.5942396-4.663172-4.1638125-2.061479-3.2277552-2.444625-4.9745468l3.668594-1.17925-.973875 12.9585h-15.785719v-78.30418755h17.062688v35.57128125l-3.459906-1.25875c.394187-1.7876458 1.201885-3.4817135 2.423093-5.0822031 1.221209-1.6004896 2.737782-3.0190677 4.549719-4.2557344 1.811938-1.2366667 3.81324-2.2055729 6.003906-2.9067187 2.190667-.7011459 4.457521-1.0517188 6.800563-1.0517188 4.894771 0 9.234974 1.2568177 13.020609 3.7704531 3.785636 2.5136354 6.768542 5.9738177 8.948719 10.3805469s3.270266 9.4422813 3.270266 15.1066563c0 5.704125-1.072422 10.7570677-3.217266 15.1588281s-5.089656 7.8569739-8.834438 10.3656406c-3.744781 2.5086667-7.994442 3.763-12.748984 3.763zm-4.4785-14.2851562c2.560563 0 4.788219-.6274428 6.682969-1.8823282s3.371297-2.9989166 4.42964-5.2320937c1.058344-2.2331771 1.587516-4.862474 1.587516-7.8878906 0-2.9956042-.521719-5.6202084-1.565156-7.8738125-1.043438-2.2536042-2.512531-3.9901823-4.407281-5.2097344s-4.137313-1.8293281-6.727688-1.8293281c-2.591479 0-4.844807.609776-6.759984 1.8293281s-3.401938 2.9561302-4.460282 5.2097344c-1.058343 2.2536041-1.587515 4.8782083-1.587515 7.8738125 0 3.0254166.529172 5.6547135 1.587515 7.8878906 1.058344 2.2331771 2.545105 3.9772083 4.460282 5.2320937s4.168505 1.8823282 6.759984 1.8823282z"/><path d="m218.430408 84.9507188v-74.2h32.035188c4.636396 0 8.790271 1.0577916 12.461625 3.173375 3.671354 2.1155833 6.577521 5.0060156 8.7185 8.6712968 2.140979 3.6652813 3.211469 7.8210886 3.211469 12.4674219 0 4.7666875-1.07049 9.0436771-3.211469 12.8309688-2.140979 3.7872916-5.047146 6.784276-8.7185 8.9909531s-7.825229 3.3100156-12.461625 3.3100156h-14.015188v24.7559688zm17.776532-40.6493438h11.734531c1.583375 0 3.010234-.3853542 4.280578-1.1560625s2.281208-1.8238073 3.032594-3.1592969c.751385-1.3354896 1.127078-2.895401 1.127078-4.6797343 0-1.7854375-.375693-3.3180209-1.127078-4.59775-.751386-1.2797292-1.76225-2.2773438-3.032594-2.9928438s-2.697203-1.07325-4.280578-1.07325h-11.734531z"/><path d="m282.434142 84.9507188v-56.2578438h16.135187l.730406 18.2800313-3.189937-3.5095938c.857937-3.0099583 2.25388-5.7217917 4.187828-8.1355s4.221229-4.3172917 6.861844-5.71075c2.640614-1.3934583 5.430567-2.0901875 8.369859-2.0901875 1.242188 0 2.420886.0957865 3.536094.2873594s2.112823.4286927 2.992844.7113594l-4.627563 18.74875c-.766292-.4350417-1.803932-.8267448-3.112922-1.1751094-1.308989-.3483646-2.681192-.5225469-4.116609-.5225469-1.542521 0-2.976557.2694167-4.30211.80825-1.325552.5388333-2.459531 1.3098177-3.401937 2.3129531s-1.680542 2.1776927-2.214406 3.5236719c-.533865 1.3459792-.800797 2.8608958-.800797 4.54475v28.1844063z"/><path d="m331.178055 84.9507187v-56.2578437h17.003063v56.2578437zm8.465094-67.3977812c-3.184417 0-5.666031-.7629792-7.444844-2.2889375-1.778812-1.5259583-2.668219-3.6884688-2.668219-6.48753125 0-2.577125.907073-4.68415104 2.721219-6.32107813 1.814146-1.63692708 4.278094-2.45539062 7.391844-2.45539062 3.183312 0 5.664651.76297917 7.444016 2.2889375 1.779364 1.52595833 2.669046 3.68846875 2.669046 6.48753125 0 2.57602085-.907349 4.68277085-2.722046 6.32024995-1.814698 1.6374792-4.27837 2.4562188-7.391016 2.4562188z"/><path d="m363.587436 84.9507188v-56.2578438h16.135188l.486937 10.1677188-2.257469.0546562c.850209-1.8373333 1.933948-3.451901 3.251219-4.8437031s2.805964-2.5688438 4.466078-3.531125c1.660115-.9622813 3.400833-1.6902031 5.222156-2.1837656s3.624151-.7403438 5.408485-.7403438c2.774771 0 5.302484.4184792 7.58314 1.2554375 2.280657.8369583 4.259323 2.1937031 5.936 4.0702344 1.676677 1.8765312 3.010235 4.4047969 4.000672 7.5847969l-2.608593-.2418125.803281-1.6198125c.939646-1.7467917 2.128833-3.2937292 3.567562-4.6408125 1.438729-1.3470834 3.041427-2.5048021 4.808094-3.4731563s3.598755-1.6995885 5.496266-2.1937031c1.89751-.4941146 3.739536-.7411719 5.526078-.7411719 4.453104 0 8.171661.8684271 11.155672 2.6052813 2.98401 1.7368541 5.22602 4.326401 6.726031 7.7686406 1.50001 3.4422396 2.250016 7.6615364 2.250016 12.6578906v34.3025938h-17.049438v-32.9974688c0-2.2469792-.314964-4.1036354-.944891-5.5699687-.629927-1.4663334-1.56488-2.5724323-2.804859-3.3182969s-2.786917-1.1187969-4.640812-1.1187969c-1.45198 0-2.800167.2343594-4.044563.7030781-1.244396.4687188-2.309917 1.1414323-3.196562 2.0181407-.886646.8767083-1.581719 1.8768072-2.085219 3.0002968s-.75525 2.3753386-.75525 3.7555469v33.5274688h-17.049438v-33.0869063c0-2.126625-.322416-3.9231042-.96725-5.3894375-.644833-1.4663333-1.587239-2.5876146-2.827218-3.3638437-1.23998-.7762292-2.742198-1.1643438-4.506657-1.1643438-1.450875 0-2.791057.2343594-4.020547.7030781-1.229489.4687188-2.287557 1.1337032-3.174203 1.9949532s-1.581995 1.8536197-2.086047 2.9771093-.756078 2.3609844-.756078 3.7124844v33.6169063z"/><path d="m489.107348 86.0107188c-6.210937 0-11.616109-1.2493646-16.215515-3.7480938-4.599407-2.4987292-8.163381-5.9188854-10.691922-10.2604687-2.528542-4.3415834-3.792813-9.3291042-3.792813-14.9625625 0-4.3007292.706667-8.2530938 2.12-11.8570938s3.394485-6.731 5.943453-9.381c2.548969-2.65 5.572453-4.6993333 9.070453-6.148s7.316761-2.173 11.456282-2.173c3.928625 0 7.538698.7094271 10.830218 2.1282813 3.291521 1.4188541 6.136407 3.4005572 8.534657 5.9451093s4.236135 5.5511979 5.513656 9.0199375 1.860521 7.247474 1.749 11.3362032l-.106 4.5430937h-44.866156l-2.438-9.4836875h33.487718l-1.833468 1.9841875v-2.1779687c-.089438-1.7644584-.612813-3.332099-1.570125-4.7029219-.957313-1.3708229-2.217167-2.4440729-3.779563-3.21975s-3.321885-1.1635156-5.278469-1.1635156c-2.802375 0-5.165843.5518072-7.090406 1.6554218-1.924562 1.1036146-3.385927 2.696099-4.384094 4.7774532-.998166 2.0813541-1.49725 4.6236979-1.49725 7.6270312 0 3.1159583.660568 5.8311042 1.981704 8.1454375 1.321135 2.3143333 3.232447 4.1069479 5.733937 5.3778438 2.50149 1.2708958 5.492953 1.9063437 8.974391 1.9063437 2.39052 0 4.525979-.3478125 6.406375-1.0434375 1.880395-.695625 3.894395-1.9002708 6.042-3.6139375l8.006312 11.2674688c-2.222687 1.8991666-4.573458 3.4441718-7.052312 4.6350156-2.478855 1.1908437-4.997459 2.0863229-7.555813 2.6864375s-5.124437.9001719-7.69825.9001719z"/></g><path d="m680.184315 216h10v134h-10z" fill="#fff"/><path d="m97.0425321 65.26.0008669 32.6305253h-16.3188669v-65.2603502c0-18.0211481 14.6124112-32.6301751 32.6377339-32.6301751 18.025323 0 32.637734 14.609027 32.637734 32.6301751 0 17.8409366-14.321624 32.3376533-32.098009 32.6258036l-.539725.0043715zm16.3197339-48.9449124c-9.012661 0-16.318867 7.3045135-16.318867 16.3150875l-.0008669 16.3148249 16.3197339.0002627c9.012661 0 16.318867-7.3045136 16.318867-16.3150876s-7.306206-16.3150875-16.318867-16.3150875zm-64.4047981 32.4249124-.0008669-32.6305253h16.3188669v65.2603502c0 18.0211481-14.6124112 32.6301751-32.6377339 32.6301751-18.0253228 0-32.637734-14.609027-32.637734-32.6301751 0-17.8409366 14.3216242-32.3376533 32.0980094-32.6258036l.5397246-.0043715zm-16.3197339 48.9449124c9.0126613 0 16.318867-7.3045135 16.318867-16.3150875l.0008669-16.3148249-16.3197339-.0002627c-9.0126614 0-16.318867 7.3045136-16.318867 16.3150876s7.3062056 16.3150875 16.318867 16.3150875z" fill="url(#a)" transform="matrix(.8571673 .51503807 -.51503807 .8571673 531.783957 198.543684)"/></g></svg>

<?xml version="1.0" encoding="UTF-8"?>
<svg width="784px" height="170px" viewBox="0 0 784 170" version="1.1" xmlns="http://www.w3.org/2000/svg" xmlns:xlink="http://www.w3.org/1999/xlink">
    <title>dubprime-grad-horizontal</title>
    <defs>
        <linearGradient x1="-23.2581444%" y1="55.8267301%" x2="129.601645%" y2="50%" id="linearGradient-1">
            <stop stop-color="#9747FF" offset="0%"></stop>
            <stop stop-color="#47BFFF" offset="100%"></stop>
        </linearGradient>
    </defs>
    <g id="Page-1" stroke="none" stroke-width="1" fill="none" fill-rule="evenodd">
        <g id="Black-on-White-Copy-3" transform="translate(-474.000000, -200.000000)">
            <g id="dubprime-black-horiz" transform="translate(474.470167, 200.332622)">
                <g id="DubPrime" transform="translate(0.000000, 0.000000)"></g>
                <g id="DubPrime-Copy" transform="translate(257.000000, 33.000000)" fill="#FFFFFF" fill-rule="nonzero">
                    <path d="M5.68434189e-14,84.9507188 L5.68434189e-14,10.7507188 L31.1126563,10.7507188 C36.5749688,10.7507188 41.5553125,11.6542031 46.0536875,13.4611719 C50.5520625,15.2681406 54.4423177,17.8223542 57.7244531,21.1238125 C61.0065885,24.4252708 63.5312656,28.3373333 65.2984844,32.86 C67.0657031,37.3826667 67.9493125,42.3795729 67.9493125,47.8507188 C67.9493125,53.2821146 67.0657031,58.2768125 65.2984844,62.8348125 C63.5312656,67.3928125 61.0140417,71.3148125 57.7468125,74.6008125 C54.4795833,77.8868125 50.5893281,80.4332969 46.0760469,82.2402656 C41.5627656,84.0472344 36.5749688,84.9507188 31.1126563,84.9507188 L5.68434189e-14,84.9507188 Z M18.02,72.6580313 L15.6333438,69.059 L30.5826563,69.059 C33.5164271,69.059 36.1556615,68.5494271 38.5003594,67.5302813 C40.8450573,66.5111354 42.8518802,65.0812396 44.5208281,63.2405938 C46.189776,61.3999479 47.4730938,59.1687031 48.3707813,56.5468594 C49.2684688,53.9250156 49.7173125,51.0263021 49.7173125,47.8507188 C49.7173125,44.6751354 49.2684688,41.783875 48.3707813,39.1769375 C47.4730938,36.57 46.1820469,34.3387552 44.4976406,32.4832031 C42.8132344,30.627651 40.8064115,29.1903021 38.4771719,28.1711563 C36.1479323,27.1520104 33.5164271,26.6424375 30.5826563,26.6424375 L15.3153438,26.6424375 L18.02,23.2554063 L18.02,72.6580313 Z" id="Shape"></path>
                    <path d="M98.8610034,86.072 C94.7005034,86.072 91.1437065,85.1734844 88.1906128,83.3764531 C85.237519,81.5794219 82.9761857,78.989875 81.4066128,75.6078125 C79.8370399,72.22575 79.0522534,68.1568958 79.0522534,63.40125 L79.0522534,28.692875 L96.0553159,28.692875 L96.0553159,61.102375 C96.0553159,63.3791667 96.4257638,65.3260885 97.1666597,66.9431406 C97.9075555,68.5601927 98.9758368,69.8018281 100.371503,70.6680469 C101.76717,71.5342656 103.457649,71.967375 105.442941,71.967375 C106.923628,71.967375 108.278717,71.7330156 109.508207,71.2642969 C110.737696,70.7955781 111.798524,70.1228646 112.690691,69.2461563 C113.582858,68.3694479 114.280691,67.336776 114.784191,66.1481406 C115.287691,64.9595052 115.539441,63.6800521 115.539441,62.3097813 L115.539441,28.692875 L132.54416,28.692875 L132.54416,84.9507188 L116.574597,84.9507188 L115.844191,73.411625 L118.969535,72.139625 C118.162389,74.7951458 116.771967,77.1726927 114.798269,79.2722656 C112.824571,81.3718385 110.459722,83.0300208 107.703722,84.2468125 C104.947722,85.4636042 102.000149,86.072 98.8610034,86.072 Z" id="Path"></path>
                    <path d="M181.105394,86.072 C178.581269,86.072 176.145753,85.7239115 173.798847,85.0277344 C171.451941,84.3315573 169.347399,83.3803177 167.485222,82.1740156 C165.623045,80.9677135 164.068654,79.579776 162.82205,78.0102031 C161.575446,76.4406302 160.760571,74.7824479 160.377425,73.0356563 L164.046019,71.8564063 L163.072144,84.8149063 L147.286425,84.8149063 L147.286425,6.51071875 L164.349113,6.51071875 L164.349113,42.082 L160.889207,40.82325 C161.283394,39.0356042 162.091092,37.3415365 163.3123,35.7410469 C164.533509,34.1405573 166.050082,32.7219792 167.862019,31.4853125 C169.673957,30.2486458 171.675259,29.2797396 173.865925,28.5785938 C176.056592,27.8774479 178.323446,27.526875 180.666488,27.526875 C185.561259,27.526875 189.901462,28.7836927 193.687097,31.2973281 C197.472733,33.8109635 200.455639,37.2711458 202.635816,41.677875 C204.815993,46.0846042 205.906082,51.1201563 205.906082,56.7845313 C205.906082,62.4886563 204.83366,67.541599 202.688816,71.9433594 C200.543972,76.3451198 197.59916,79.8003333 193.854378,82.309 C190.109597,84.8176667 185.859936,86.072 181.105394,86.072 Z M176.626894,71.7868438 C179.187457,71.7868438 181.415113,71.159401 183.309863,69.9045156 C185.204613,68.6496302 186.68116,66.905599 187.739503,64.6724219 C188.797847,62.4392448 189.327019,59.8099479 189.327019,56.7845313 C189.327019,53.7889271 188.8053,51.1643229 187.761863,48.9107188 C186.718425,46.6571146 185.249332,44.9205365 183.354582,43.7009844 C181.459832,42.4814323 179.217269,41.8716563 176.626894,41.8716563 C174.035415,41.8716563 171.782087,42.4814323 169.86691,43.7009844 C167.951733,44.9205365 166.464972,46.6571146 165.406628,48.9107188 C164.348285,51.1643229 163.819113,53.7889271 163.819113,56.7845313 C163.819113,59.8099479 164.348285,62.4392448 165.406628,64.6724219 C166.464972,66.905599 167.951733,68.6496302 169.86691,69.9045156 C171.782087,71.159401 174.035415,71.7868438 176.626894,71.7868438 Z" id="Shape"></path>
                    <path d="M218.430408,84.9507188 L218.430408,10.7507188 L250.465596,10.7507188 C255.101992,10.7507188 259.255867,11.8085104 262.927221,13.9240938 C266.598575,16.0396771 269.504742,18.9301094 271.645721,22.5953906 C273.7867,26.2606719 274.85719,30.4164792 274.85719,35.0628125 C274.85719,39.8295 273.7867,44.1064896 271.645721,47.8937813 C269.504742,51.6810729 266.598575,54.6780573 262.927221,56.8847344 C259.255867,59.0914115 255.101992,60.19475 250.465596,60.19475 L236.450408,60.19475 L236.450408,84.9507188 L218.430408,84.9507188 Z M236.20694,44.301375 L247.941471,44.301375 C249.524846,44.301375 250.951705,43.9160208 252.222049,43.1453125 C253.492393,42.3746042 254.503257,41.3215052 255.254643,39.9860156 C256.006028,38.650526 256.381721,37.0906146 256.381721,35.3062813 C256.381721,33.5208438 256.006028,31.9882604 255.254643,30.7085313 C254.503257,29.4288021 253.492393,28.4311875 252.222049,27.7156875 C250.951705,27.0001875 249.524846,26.6424375 247.941471,26.6424375 L236.20694,26.6424375 L236.20694,44.301375 Z" id="Shape"></path>
                    <path d="M282.434142,84.9507188 L282.434142,28.692875 L298.569329,28.692875 L299.299735,46.9729063 L296.109798,43.4633125 C296.967735,40.4533542 298.363678,37.7415208 300.297626,35.3278125 C302.231574,32.9141042 304.518855,31.0105208 307.15947,29.6170625 C309.800084,28.2236042 312.590037,27.526875 315.529329,27.526875 C316.771517,27.526875 317.950215,27.6226615 319.065423,27.8142344 C320.180631,28.0058073 321.178246,28.2429271 322.058267,28.5255938 L317.430704,47.2743438 C316.664412,46.8393021 315.626772,46.447599 314.317782,46.0992344 C313.008793,45.7508698 311.63659,45.5766875 310.201173,45.5766875 C308.658652,45.5766875 307.224616,45.8461042 305.899063,46.3849375 C304.573511,46.9237708 303.439532,47.6947552 302.497126,48.6978906 C301.55472,49.701026 300.816584,50.8755833 300.28272,52.2215625 C299.748855,53.5675417 299.481923,55.0824583 299.481923,56.7663125 L299.481923,84.9507188 L282.434142,84.9507188 Z" id="Path"></path>
                    <path d="M331.178055,84.9507187 L331.178055,28.692875 L348.181118,28.692875 L348.181118,84.9507187 L331.178055,84.9507187 Z M339.643149,17.5529375 C336.458732,17.5529375 333.977118,16.7899583 332.198305,15.264 C330.419493,13.7380417 329.530086,11.5755312 329.530086,8.77646875 C329.530086,6.19934375 330.437159,4.09231771 332.251305,2.45539062 C334.065451,0.818463542 336.529399,0 339.643149,0 C342.826461,0 345.3078,0.762979167 347.087165,2.2889375 C348.866529,3.81489583 349.756211,5.97740625 349.756211,8.77646875 C349.756211,11.3524896 348.848862,13.4592396 347.034165,15.0967187 C345.219467,16.7341979 342.755795,17.5529375 339.643149,17.5529375 Z" id="Shape"></path>
                    <path d="M363.587436,84.9507188 L363.587436,28.692875 L379.722624,28.692875 L380.209561,38.8605938 L377.952092,38.91525 C378.802301,37.0779167 379.88604,35.463349 381.203311,34.0715469 C382.520582,32.6797448 384.009275,31.5027031 385.669389,30.5404219 C387.329504,29.5781406 389.070222,28.8502188 390.891545,28.3566563 C392.712868,27.8630938 394.515696,27.6163125 396.30003,27.6163125 C399.074801,27.6163125 401.602514,28.0347917 403.88317,28.87175 C406.163827,29.7087083 408.142493,31.0654531 409.81917,32.9419844 C411.495847,34.8185156 412.829405,37.3467813 413.819842,40.5267813 L411.211249,40.2849688 L412.01453,38.6651563 C412.954176,36.9183646 414.143363,35.3714271 415.582092,34.0243438 C417.020821,32.6772604 418.623519,31.5195417 420.390186,30.5511875 C422.156853,29.5828333 423.988941,28.851599 425.886452,28.3574844 C427.783962,27.8633698 429.625988,27.6163125 431.41253,27.6163125 C435.865634,27.6163125 439.584191,28.4847396 442.568202,30.2215938 C445.552212,31.9584479 447.794222,34.5479948 449.294233,37.9902344 C450.794243,41.432474 451.544249,45.6517708 451.544249,50.648125 L451.544249,84.9507188 L434.494811,84.9507188 L434.494811,51.95325 C434.494811,49.7062708 434.179847,47.8496146 433.54992,46.3832813 C432.919993,44.9169479 431.98504,43.810849 430.745061,43.0649844 C429.505082,42.3191198 427.958144,41.9461875 426.104249,41.9461875 C424.652269,41.9461875 423.304082,42.1805469 422.059686,42.6492656 C420.81529,43.1179844 419.749769,43.7906979 418.863124,44.6674063 C417.976478,45.5441146 417.281405,46.5442135 416.777905,47.6677031 C416.274405,48.7911927 416.022655,50.0430417 416.022655,51.42325 L416.022655,84.9507188 L398.973217,84.9507188 L398.973217,51.8638125 C398.973217,49.7371875 398.650801,47.9407083 398.005967,46.474375 C397.361134,45.0080417 396.418728,43.8867604 395.178749,43.1105313 C393.938769,42.3343021 392.436551,41.9461875 390.672092,41.9461875 C389.221217,41.9461875 387.881035,42.1805469 386.651545,42.6492656 C385.422056,43.1179844 384.363988,43.7829688 383.477342,44.6442188 C382.590696,45.5054688 381.895347,46.4978385 381.391295,47.6213281 C380.887243,48.7448177 380.635217,49.9823125 380.635217,51.3338125 L380.635217,84.9507188 L363.587436,84.9507188 Z" id="Path"></path>
                    <path d="M489.107348,86.0107188 C482.896411,86.0107188 477.491239,84.7613542 472.891833,82.262625 C468.292426,79.7638958 464.728452,76.3437396 462.199911,72.0021563 C459.671369,67.6605729 458.407098,62.6730521 458.407098,57.0395938 C458.407098,52.7388646 459.113765,48.7865 460.527098,45.1825 C461.940431,41.5785 463.921583,38.4515 466.470551,35.8015 C469.01952,33.1515 472.043004,31.1021667 475.541004,29.6535 C479.039004,28.2048333 482.857765,27.4805 486.997286,27.4805 C490.925911,27.4805 494.535984,28.1899271 497.827504,29.6087813 C501.119025,31.0276354 503.963911,33.0093385 506.362161,35.5538906 C508.760411,38.0984427 510.598296,41.1050885 511.875817,44.5738281 C513.153338,48.0425677 513.736338,51.8213021 513.624817,55.9100313 L513.518817,60.453125 L468.652661,60.453125 L466.214661,50.9694375 L499.702379,50.9694375 L497.868911,52.953625 L497.868911,50.7756563 C497.779473,49.0111979 497.256098,47.4435573 496.298786,46.0727344 C495.341473,44.7019115 494.081619,43.6286615 492.519223,42.8529844 C490.956827,42.0773073 489.197338,41.6894688 487.240754,41.6894688 C484.438379,41.6894688 482.074911,42.241276 480.150348,43.3448906 C478.225786,44.4485052 476.764421,46.0409896 475.766254,48.1223438 C474.768088,50.2036979 474.269004,52.7460417 474.269004,55.749375 C474.269004,58.8653333 474.929572,61.5804792 476.250708,63.8948125 C477.571843,66.2091458 479.483155,68.0017604 481.984645,69.2726563 C484.486135,70.5435521 487.477598,71.179 490.959036,71.179 C493.349556,71.179 495.485015,70.8311875 497.365411,70.1355625 C499.245806,69.4399375 501.259806,68.2352917 503.407411,66.521625 L511.413723,77.7890938 C509.191036,79.6882604 506.840265,81.2332656 504.361411,82.4241094 C501.882556,83.6149531 499.363952,84.5104323 496.805598,85.1105469 C494.247244,85.7106615 491.681161,86.0107188 489.107348,86.0107188 Z" id="Path"></path>
                </g>
                <rect id="Rectangle" fill="#FFFFFF" x="205.714148" y="15.6673779" width="10" height="134"></rect>
            </g>
            <g id="logo-mark-copy" transform="translate(565.000000, 285.000000) rotate(-329.000000) translate(-565.000000, -285.000000) translate(492.000000, 228.000000)" fill="url(#linearGradient-1)">
                <path d="M97.0425321,65.26 L97.043399,97.8905253 L80.7245321,97.8905253 L80.7245321,32.6301751 C80.7245321,14.609027 95.3369433,-6.3799829e-14 113.362266,-6.3799829e-14 C131.387589,-6.3799829e-14 146,14.609027 146,32.6301751 C146,50.4711117 131.678376,64.9678284 113.901991,65.2559787 L113.362266,65.2603502 L97.0425321,65.26 Z M113.362266,16.3150876 C104.349605,16.3150876 97.043399,23.6196011 97.043399,32.6301751 L97.0425321,48.945 L113.362266,48.9452627 C122.374927,48.9452627 129.681133,41.6407491 129.681133,32.6301751 C129.681133,23.6196011 122.374927,16.3150876 113.362266,16.3150876 Z M48.9574679,48.74 L48.956601,16.1094747 L65.2754679,16.1094747 L65.2754679,81.3698249 C65.2754679,99.390973 50.6630567,114 32.637734,114 C14.6124112,114 -2.28413226e-13,99.390973 -2.28413226e-13,81.3698249 C-2.28413226e-13,63.5288883 14.3216242,49.0321716 32.0980094,48.7440213 L32.637734,48.7396498 L48.9574679,48.74 Z M32.637734,97.6849124 C41.6503953,97.6849124 48.956601,90.3803989 48.956601,81.3698249 L48.9574679,65.055 L32.637734,65.0547373 C23.6250726,65.0547373 16.318867,72.3592509 16.318867,81.3698249 C16.318867,90.3803989 23.6250726,97.6849124 32.637734,97.6849124 Z" id="Combined-Shape"></path>
            </g>
        </g>
    </g>
</svg>
